X: 28914
T: Na Conneries
R: waltz
M: 3/4
K: Gmajor
AD|G3A Bc|A3B cA|d3e fg/a/|/f/g/f d2 c2|
c3A G2|GA/G/ G2 de|/f/e/f f2 fe|d3e dc|
A2 A/G/A/B/ d2|ed de f/d/e/c/|d4 de/f/|ge ff/e/ de/d/|
c<A A2 A/G/A/B/|de de f/d/e/c/|d4 AD|
G3A Bc|A3B cA|d3e fg/a/|/f/g/f d2 c2|
c3A G2|GA/G/ G2 G2|G6|G6||

